Papirus/24x24/apps/groovy.svg

<svg xmlns="http://www.w3.org/2000/svg" width="24" height="24" version="1.1" viewBox="0 0 24 24">
 <circle style="opacity:.2" cx="12" cy="12.5" r="10"/>
 <circle style="fill:#3f9142" cx="12" cy="12" r="10"/>
 <circle style="fill:#79de7d" cx="12" cy="12" r="8"/>
 <path style="opacity:.2" d="m12.307 7.5c-1.064 0-1.999 0.2332-2.807 0.6992-0.8078 0.4611-1.426 1.1007-1.8555 1.9198-0.4294 0.819-0.6445 1.753-0.6445 2.803 0 1.1086 0.20428 2.0831 0.61328 2.9219 0.409 0.8339 1.013 1.4861 1.8105 1.957 0.8025 0.466 1.7552 0.699 2.8592 0.699 1.5693 0 2.7478-0.38678 3.5352-1.1621 0.788-0.779 1.182-1.927 1.182-3.443v-0.395h-4v1.5h2c-0.01534 0.41695-0.07865 0.77209-0.34961 1.0664-0.26585 0.28941-0.54367 0.49061-0.96289 0.62305-0.41412 0.12753-0.89092 0.19141-1.4277 0.19141-0.68508 0-1.2898-0.17903-1.8164-0.53711-0.5215-0.358-0.9212-0.834-1.1973-1.428-0.2707-0.598-0.406-1.267-0.4063-2.002 0.0005-1.093 0.3373-1.9991 1.0118-2.7148 0.6748-0.721 1.4834-1.0801 2.4234-1.0801 0.58267 0 1.0963 0.14707 1.541 0.44141 0.384 0.2538 0.667 0.569 0.86 0.9395h2.002c-0.301-0.8845-0.793-1.6018-1.496-2.1387-0.747-0.5739-1.705-0.8613-2.875-0.8613z"/>
 <path style="fill:#3f9142" d="m12.307 7c-1.064 0-1.999 0.2332-2.807 0.6992-0.8078 0.4611-1.426 1.1007-1.8555 1.9199-0.4294 0.8189-0.6445 1.7529-0.6445 2.8029 0 1.1086 0.20428 2.0831 0.61328 2.9219 0.409 0.8339 1.013 1.4861 1.8105 1.957 0.8025 0.466 1.7552 0.699 2.8592 0.699 1.57 0 2.748-0.387 3.535-1.162 0.788-0.779 1.182-1.927 1.182-3.443v-0.395h-4v1.5h2c-0.01534 0.41695-0.07865 0.77209-0.34961 1.0664-0.26585 0.28941-0.54367 0.49061-0.96289 0.62305-0.41412 0.12753-0.89092 0.19141-1.4277 0.19141-0.68508 0-1.2898-0.17903-1.8164-0.53711-0.5215-0.358-0.9212-0.834-1.1973-1.428-0.2707-0.598-0.406-1.267-0.4063-2.002 0.0005-1.093 0.3373-1.9991 1.0118-2.7148 0.6748-0.721 1.4834-1.0801 2.4234-1.0801 0.58267 0 1.0963 0.14707 1.541 0.44141 0.384 0.2538 0.667 0.569 0.86 0.9395h2.002c-0.301-0.8845-0.793-1.6018-1.496-2.1387-0.747-0.5739-1.705-0.8613-2.875-0.8613z"/>
 <path style="opacity:.2" d="m12 4a8 8 0 0 0 -8 8 8 8 0 0 0 0.0098 0.293 8 8 0 0 1 7.9902 -7.793 8 8 0 0 1 7.99 7.707 8 8 0 0 0 0.01 -0.207 8 8 0 0 0 -8 -8z"/>
 <path style="opacity:.1;fill:#ffffff" d="m12 2a10 10 0 0 0 -10 10 10 10 0 0 0 0.0098 0.293 10 10 0 0 1 9.9902 -9.793 10 10 0 0 1 9.99 9.707 10 10 0 0 0 0.01 -0.207 10 10 0 0 0 -10 -10z"/>
</svg>

<svg xmlns="http://www.w3.org/2000/svg" width="24" height="24" version="1.1" viewBox="0 0 24 24">
 <circle style="opacity:0.2" cx="12" cy="12.5" r="10"/>
 <circle style="fill:#3f9142" cx="12" cy="12" r="10"/>
 <circle style="opacity:0.1" cx="12" cy="12.5" r="8"/>
 <circle style="fill:#79de7d" cx="12" cy="12" r="8"/>
 <path style="opacity:0.2;fill:#ffffff" d="m12.307 7.5c-1.064 0-1.999 0.2332-2.807 0.6992-0.8078 0.4611-1.426 1.1007-1.8555 1.9198-0.4294 0.819-0.6445 1.753-0.6445 2.803 0 1.1086 0.20428 2.0831 0.61328 2.9219 0.409 0.8339 1.013 1.4861 1.8105 1.957 0.8025 0.466 1.7552 0.699 2.8592 0.699 1.5693 0 2.7478-0.38678 3.5352-1.1621 0.788-0.779 1.182-1.927 1.182-3.443v-0.395h-4v1.5h2c-0.01534 0.41695-0.07865 0.77209-0.34961 1.0664-0.26585 0.28941-0.54367 0.49061-0.96289 0.62305-0.41412 0.12753-0.89092 0.19141-1.4277 0.19141-0.68508 0-1.2898-0.17903-1.8164-0.53711-0.5215-0.358-0.9212-0.834-1.1973-1.428-0.2707-0.598-0.406-1.267-0.4063-2.002 0.0005-1.093 0.3373-1.9991 1.0118-2.7148 0.6748-0.721 1.4834-1.0801 2.4234-1.0801 0.58267 0 1.0963 0.14707 1.541 0.44141 0.384 0.2538 0.667 0.569 0.86 0.9395h2.002c-0.301-0.8845-0.793-1.6018-1.496-2.1387-0.747-0.5739-1.705-0.8613-2.875-0.8613z"/>
 <path style="fill:#3f9142" d="M 12.307,7 C 11.243,7 10.308,7.2332 9.5,7.6992 8.6922,8.1603 8.074,8.7999 7.6445,9.6191 7.2151,10.438 7,11.372 7,12.422 7,13.531 7.2043,14.505 7.6133,15.344 8.0223,16.178 8.6263,16.83 9.4238,17.301 10.226,17.767 11.179,18 12.283,18 13.853,18 15.031,17.613 15.818,16.838 16.606,16.059 17,14.911 17,13.395 V 13 H 13 V 14.5 H 15 C 14.985,14.917 14.921,15.272 14.65,15.566 14.385,15.856 14.107,16.057 13.687,16.189 13.273,16.317 12.797,16.381 12.26,16.381 11.575,16.381 10.97,16.202 10.443,15.844 9.9219,15.486 9.5222,15.01 9.2461,14.416 8.9754,13.818 8.8401,13.149 8.8398,12.414 8.8403,11.321 9.1771,10.415 9.8516,9.6989 10.526,8.9779 11.335,8.6188 12.275,8.6188 12.858,8.6188 13.371,8.7658 13.816,9.0602 14.2,9.314 14.483,9.6292 14.676,9.9997 H 16.678 C 16.377,9.1152 15.885,8.3979 15.182,7.861 14.435,7.2871 13.477,6.9997 12.307,6.9997 Z"/>
 <path style="opacity:0.2;fill:#ffffff" d="m12 4a8 8 0 0 0 -8 8 8 8 0 0 0 0.0098 0.293 8 8 0 0 1 7.9902 -7.793 8 8 0 0 1 7.99 7.707 8 8 0 0 0 0.01 -0.207 8 8 0 0 0 -8 -8z"/>
 <path style="opacity:0.1;fill:#ffffff" d="m12 2a10 10 0 0 0 -10 10 10 10 0 0 0 0.0098 0.293 10 10 0 0 1 9.9902 -9.793 10 10 0 0 1 9.99 9.707 10 10 0 0 0 0.01 -0.207 10 10 0 0 0 -10 -10z"/>
</svg>
